!! 00000] TT[WS
!!!OTL: Shier yue huadiao
!!!ARE: Asia, China, Shanxi Qinyuan
!! Ethnic Group: Han
!! WI, 167 (2)
!!!SCT: J0202
!!!YEM: Copyright 1995, estate of Helmut Schaffrath.
**kern
*ICvox
*Ivox
!! Mixed meters:  2/4; 3/4
*M3/4
*k[b-e-]
*B-:
{8bb-
16bb-
16gg
4ff
=1
16gg
16bb-
16gg
16ff
4dd
=2
16ddd
16fff
16ddd
16ccc
16ddd
16fff
16ddd
16ccc
=3
16bb-
16aa
8gg
8.ff
16gg}
=4
{8bb-
16gg
16ff
8bb-
8bb-
=5
8gg
8ddd
8gg
8ff
=6
8bb-
16gg
16ff
8dd
8cc
=7
4b-
4b-}
=8
{4bb-
16ccc
16fff
8aa
=9
8gg
8gg
4ff
=10
8bb-
16gg
16ff
4gg
=11
8ee-
8dd
8cc
8r}
=12
{[2.bb-
=13
*M2/4
8bb-]
8ddd
8ccc
8ddd
=14
8bb-
16ccc
16ddd
4bb-
=15
16gg
16bb-
16gg
16ff
4gg
=16
8ee-
4dd
16cc
16dd
=17
2b-}
==
!!!AGN: Xiaodiao, Duihua. Qingge
!!!ONB: ESAC (Essen Associative Code) Database: CHINA
!!!AMT: irregular
!!!AIN: vox
!!!EED: Helmut Schaffrath
!!!EEV: 1.0
*-
!!!ONB: Tied note syntax fixed by Craig Sapp, 2004/05/03/
